X:1
T:Bonny Lass of Rothieman (The)
T:Bonny Lass of Rothieman (The)
T:Alexander Walker
C:Alexander Walker
L:1/8
M:4/4
K:G
V:1 treble 
V:1
 D | D<GG>E A>GA>B | d>edB | D<GG>E A>GA>B | G<ED>B, (G,2 G,>)E | D<GG>E A>GA>B | d<Bg>B A2- A>f | %7
 g>ae>g d>eg>a | g<ed>B (G2 G) || a | g<ed>c B>dG>b | %11

